icons/swap-box-fill.svg

<svg viewBox="0 0 24 24" fill="currentColor" xmlns="http://www.w3.org/2000/svg"><path d="M3.00488 3.00275H21.0049C21.5572 3.00275 22.0049 3.45046 22.0049 4.00275V20.0027C22.0049 20.555 21.5572 21.0027 21.0049 21.0027H3.00488C2.4526 21.0027 2.00488 20.555 2.00488 20.0027V4.00275C2.00488 3.45046 2.4526 3.00275 3.00488 3.00275ZM15.0049 7.00275V9.00275H11.0049V11.0027H15.0049V13.0027L18.5049 10.0027L15.0049 7.00275ZM9.00488 17.0027V15.0027H13.0049V13.0027H9.00488V11.0027L5.50488 14.0027L9.00488 17.0027Z"/></svg>

<svg xmlns="http://www.w3.org/2000/svg" viewBox="0 0 24 24">
    <g>
        <path fill="none" d="M0 0h24v24H0z"/>
        <path d="M3 3h18a1 1 0 0 1 1 1v16a1 1 0 0 1-1 1H3a1 1 0 0 1-1-1V4a1 1 0 0 1 1-1zm12 4v2h-4v2h4v2l3.5-3L15 7zM9 17v-2h4v-2H9v-2l-3.5 3L9 17z"/>
    </g>
</svg>
